X:1
T:Title
%%score [ 1 2 3 ]
L:1/8
Q:1/4=82
M:4/4
K:F
V:1 treble nm="Soprano"
V:2 treble nm="Contralto"
V:3 bass nm="Basso"
V:1
!p! A4 B4 | G2 G2 A3 A | A4 (c4- | c2 A2) B2 B2 | A2 (c4 =B2 | c2 B2) A2 G2 | (F2 G2) A4 | %7
w: Sub tu-|um prae- si- di-|um con-|* * fu- gi|mus con- *|* * fu- gi-|mus _ _|
!mf! (G8 | F4) G4 | D2 E2 F3 F | G8 | A4 d4 |!>(! c2 A2 G3 G!>)! | F8 |!p! E4 B4 | A4 G2 F2 | %16
w: San-|* cta|De- i ge- ni-|trix,|san- cta|De- i ge- ni-|trix.|no- stras|de- pre- ca-|
 E4 D4 |!mf! d6 d2 | (c4 B2) A2 | G2 F2 B4 |"^rit." B2!>(! A2 G3 F!>)! | !fermata!F8 || %22
w: tio- nes|ne de-|spi- * ci-|as in ne|ces- si ta- ti-|bus|
"^a tempo"!p! G4 A2 A2 | (B2 A2 G2 A2 | B4) B2 A2 | A4 A4 | F4 G2 A2 | B4 (A2 G2 | A4) B4 | %29
w: sed a pe|ri- * * *|* cu- lis|cun- ctis|li- be- ra|nos sem- *|* per.|
 z4!f! !>!d4 | c2 (!>!e4 d2) | c4!>(! (!>!d4- | d4 c2) =B2 | (c4 B2 A2 | G2!>)! F2) B2!p! B2 | %35
w: Vir-|go, vir- *|go glo-|* * ri|o- * *|* * sa et|
"^rit." B2 A2 (G3 F) | !fermata!F8 ||!p! B8 | !fermata!A8 |] %39
w: be- ne di- *|cta.|A-|men.|
V:2
 z8 |!p! E4 F4 | D2 D2 E3 E | D4 D4 | (F4 D2) D2 | C2 C2 (C4 | D2 E2 F4- | F2) D2 E4 |!mf! D4 C4 | %9
w: |Sub tu-|um prae- si- di-|um con-|fu- * gi-|mus con- fu-||* gi- mus|san- cta|
 C2 B,2 A,2 D2 | C4 G4- | G4 F4 | F2 F2 F2 E2 | D8 |!p! C4 D4 | (D2 C2) =B,2 B,2 | C6 B,2 | %17
w: De- i ge- ni-|trix, san-|* cta|De- i ge- ni-|trix|no- stras|de- * pre- ca-|tio- nes|
!mf! A,4 D4 | F4 F4 | C4 F2 B,2 | C2 C2 C2 C2 | !fermata!C8 || z4!p! F4 | F2 F2 (G4 | F4) E2 E2 | %25
w: ne de-|spi- ci-|as in ne-|ces- si- ta- ti-|bus|sed|a pe ri-|* cu- lis|
 F4 E4 | B,4 E2 F2 | (E2 D2) (C2 G2- | G2 ^F2) G4- | G8 |!mf! (E3 ^F ^G4) | A8 |!>(! !>!G4 G4 | %33
w: cun- ctis|li- be- ra|no- * sem- *|* * per|_|vir- * *|go|glo- ri-|
 F4!>)! F4 |!p! C4 (F2 B,2 | C2) C2 C4 | !fermata!C8 ||!p! F8 | !fermata!F8 |] %39
w: * sa|et be- *|* ne- dic-|cta.|A-|men.|
V:3
 z8 | z8 | z8 | z8 |!p! F,4 G,4 | E,2 E,2 F,3 F, | B,,2 B,,2 F,2 F,2 | C,8!mf! | D,4 E,4 | %9
w: ||||Sub tu-|um prae- si- di-|um con- fu- gi-|mus|san- cta|
 G,2 G,2 F,3 F, | F,4 E,2 E,2 | D,2 D,2 (B,,4 | A,,3 =B,, C,2) C,2 | D,4!p! (B,,4- | %14
w: De- i ge- ni-|trix, san- cta|De- i ge-|* * * ni-|trix no-|
 B,,2 A,,2) G,,4 | D,4 G,2 G,2 | C,4 G,4 |!mf! F,4 B,4 | (A,4 D,2) F,2 | E,2 (F,2 D,2) G,2 | %20
w: * * stras|de- pre- ca-|tio- nes|ne de-|spi- * ci-|as in- * ne-|
 F,2 F,2 F,2 E,2 | !fermata!F,8 || z4 z4 |!p! D,4 E,2 E,2 | B,,4 C,2 C,2 | (D,6 ^C,2) | D,4 z4 | %27
w: ces- si- ta- ti-|bus||sed a per|ri- cu- lis|cun- *|ctis|
 C,4 F,2 E,2 | D,4 G,4 | C,2!mf! (!>!C4 =B,2) | C4 !>!E,4 | F,8 |!>(! !>!E,8 | A,4 (D,2 F,2 | %34
w: li- be- ra|nos sem-|per. Vir- *|go vir-|go|glo-|ri- o- *|
 E,2 F,2)!>)! D,2!p! G,2 | F,2 F,2 (F,2 E,2) | !fermata!F,8 ||!p! D,8 | !fermata!F,8 |] %39
w: * * sa et|be- ne- di- *|cta.|A-|men.|

